symbols/web/bus_alert/materialsymbolsrounded/bus_alert_wght300gradN25fill1_40px.svg

<svg xmlns="http://www.w3.org/2000/svg" height="40" width="40"><path d="M10.625 28.083q.833 0 1.417-.583.583-.583.583-1.458 0-.834-.583-1.438Q11.458 24 10.625 24q-.875 0-1.458.604-.584.604-.584 1.479 0 .834.584 1.417.583.583 1.458.583Zm12.125 0q.875 0 1.458-.583.584-.583.584-1.458 0-.834-.584-1.438Q23.625 24 22.75 24q-.833 0-1.417.604-.583.604-.583 1.479 0 .834.583 1.417.584.583 1.417.583Zm7.042-10.708q-3 0-5.084-2.083-2.083-2.084-2.083-5.084 0-3 2.083-5.083 2.084-2.083 5.084-2.083 3 0 5.083 2.104t2.083 5.062q0 3-2.104 5.084-2.104 2.083-5.062 2.083Zm0-6q.291 0 .479-.208.187-.209.187-.417V6.542q0-.25-.208-.459-.208-.208-.458-.208t-.459.208q-.208.209-.208.459v4.208q0 .208.208.417.209.208.459.208Zm0 3.375q.375 0 .646-.271.27-.271.27-.604 0-.375-.27-.625-.271-.25-.646-.25-.334 0-.604.25-.271.25-.271.625 0 .333.271.604.27.271.604.271ZM8.167 35.625q-.584 0-.959-.396t-.375-.937v-2.875q-1-.5-1.729-1.688-.729-1.187-.729-2.646V11.375q0-1.458.813-2.542Q6 7.75 7.875 7.062q1.875-.687 4.896-.916 3.021-.229 7.437-.021-.625 1.5-.77 3.125-.146 1.625.229 3.25H6.375v7.375h19.75q.542.292 1.396.5.854.208 1.479.208v6.5q0 1.459-.729 2.646-.729 1.188-1.729 1.688v2.875q0 .541-.396.937t-.938.396q-.583 0-.958-.396t-.375-.937v-2H9.5v2q0 .541-.396.937t-.937.396Z"/></svg>

<svg xmlns="http://www.w3.org/2000/svg" height="40" width="40"><path d="M10.625 28.083Q11.458 28.083 12.042 27.5Q12.625 26.917 12.625 26.042Q12.625 25.208 12.042 24.604Q11.458 24 10.625 24Q9.75 24 9.167 24.604Q8.583 25.208 8.583 26.083Q8.583 26.917 9.167 27.5Q9.75 28.083 10.625 28.083ZM22.75 28.083Q23.625 28.083 24.208 27.5Q24.792 26.917 24.792 26.042Q24.792 25.208 24.208 24.604Q23.625 24 22.75 24Q21.917 24 21.333 24.604Q20.75 25.208 20.75 26.083Q20.75 26.917 21.333 27.5Q21.917 28.083 22.75 28.083ZM29.792 17.375Q26.792 17.375 24.708 15.292Q22.625 13.208 22.625 10.208Q22.625 7.208 24.708 5.125Q26.792 3.042 29.792 3.042Q32.792 3.042 34.875 5.146Q36.958 7.25 36.958 10.208Q36.958 13.208 34.854 15.292Q32.75 17.375 29.792 17.375ZM29.792 11.375Q30.083 11.375 30.271 11.167Q30.458 10.958 30.458 10.75V6.542Q30.458 6.292 30.25 6.083Q30.042 5.875 29.792 5.875Q29.542 5.875 29.333 6.083Q29.125 6.292 29.125 6.542V10.75Q29.125 10.958 29.333 11.167Q29.542 11.375 29.792 11.375ZM29.792 14.75Q30.167 14.75 30.438 14.479Q30.708 14.208 30.708 13.875Q30.708 13.5 30.438 13.25Q30.167 13 29.792 13Q29.458 13 29.188 13.25Q28.917 13.5 28.917 13.875Q28.917 14.208 29.188 14.479Q29.458 14.75 29.792 14.75ZM8.167 35.625Q7.583 35.625 7.208 35.229Q6.833 34.833 6.833 34.292V31.417Q5.833 30.917 5.104 29.729Q4.375 28.542 4.375 27.083V11.375Q4.375 9.917 5.188 8.833Q6 7.75 7.875 7.062Q9.75 6.375 12.771 6.146Q15.792 5.917 20.208 6.125Q19.583 7.625 19.438 9.25Q19.292 10.875 19.667 12.5H6.375V19.875H26.125Q26.667 20.167 27.521 20.375Q28.375 20.583 29 20.583V27.083Q29 28.542 28.271 29.729Q27.542 30.917 26.542 31.417V34.292Q26.542 34.833 26.146 35.229Q25.75 35.625 25.208 35.625Q24.625 35.625 24.25 35.229Q23.875 34.833 23.875 34.292V32.292H9.5V34.292Q9.5 34.833 9.104 35.229Q8.708 35.625 8.167 35.625Z"/></svg>
